X: 219
T: 220. Sollt ich meinem Gott nicht singen
N: Derived from chor220.krn
C: Johann Sebastian Bach
%%abc-version 2.0
%%abcx-abcm2ps-target-version 5.9.1 (29 Sep 2008)
%%abc-creator hum2abc beta
%%abcx-conversion-date 2019/03/11 17:28:18
%%abc-edited-by Craig Stuart Sapp
%%humdrum-veritas 3832942014
%%humdrum-veritas-data 1891661072
%%
%%barnumbers 0
L: 1/8
M: 3/4
%%staves [1 2 3 4]
V: 1 clef=treble
V: 2 clef=treble
V: 3 clef=treble-8
V: 4 clef=bass
K: F
[V:1] D3E FG | 
[V:2] A,2D^CDE | 
[V:3] F3GA2- | 
[V:4] D,2D,,2D,2 | 
[V:1] A4d2 | 
[V:2] FEFGA2- | 
[V:3] A2d3e | 
[V:4] D,^C,D,E,F,G, | 
[V:1] d2e2^c2 | 
[V:2] A2B2A2 | 
[V:3] f2g2eg- | 
[V:4] A,2G,2A,2 | 
[V:1] d4!fermata!d2 | 
[V:2] A4!fermata!A2 | 
[V:3] g2fe!fermata!f2 | 
[V:4] D,4!fermata!D,,2 | 
[V:1] f4e2 | 
[V:2] A4A2 | 
[V:3] d4c2- | 
[V:4] D,E,F,G,A,A,, | 
[V:1] d4c2 | 
[V:2] F4F2 | 
[V:3] c2B3A | 
[V:4] B,,C,D,E,F,F,, | 
[V:1] dcB4 | 
[V:2] F2FG FE | 
[V:3] Bcd2c2 | 
[V:4] B,,A,,G,,2C,2 | 
[V:1] !fermata!A6 :|]  
[V:2] !fermata!F6 :|]  
[V:3] !fermata!c6 :|]  
[V:4] !fermata!F,,6 :|]  
[V:1] A4AB | 
[V:2] F4F2- | 
[V:3] d4d2 | 
[V:4] D,2D2CB, | 
[V:1] c4F2 | 
[V:2] FGFEF2 | 
[V:3] c4A2 | 
[V:4] A,A,,B,,C,D,C, | 
[V:1] B4A2 | 
[V:2] F4F2- | 
[V:3] d2c4 | 
[V:4] D,E,F,G,A,B, | 
[V:1] G4!fermata!G2 | 
[V:2] F2ED!fermata!E2 | 
[V:3] c4!fermata!c2 | 
[V:4] C4!fermata!C,2 | 
[V:1] G4A2 | 
[V:2] E2D2D2 | 
[V:3] c2d2A2- | 
[V:4] C2B,A,G,^F, | 
[V:1] B4c2 | 
[V:2] D2G^FG2 | 
[V:3] A2G2cd | 
[V:4] G,=F,_E,D,E,D, | 
[V:1] B2A2B2 | 
[V:2] G2G2^F2 | 
[V:3] _ed _ec Ad | 
[V:4] C,B,,C,2D,2 | 
[V:1] !fermata!G6 | 
[V:2] !fermata!D6 | 
[V:3] !fermata!B6 | 
[V:4] !fermata!G,,6 | 
[V:1] A4AB | 
[V:2] =FEFG DF | 
[V:3] d2d2d2 | 
[V:4] D,^C,D,E,F,D, | 
[V:1] c4A2 | 
[V:2] GEFG AG | 
[V:3] c4c2 | 
[V:4] E,C,D,E,F,E, | 
[V:1] B2A4 | 
[V:2] F4F2- | 
[V:3] d2c4 | 
[V:4] D,E,F,G,A,B, | 
[V:1] !fermata!G6 | 
[V:2] F2!fermata!E4 | 
[V:3] !fermata!c6 | 
[V:4] !fermata!C6 | 
[V:1] F4F2 | 
[V:2] F2C4 | 
[V:3] c2-cBAG | 
[V:4] A,B,A,G,F,E, | 
[V:1] F2E2F2 | 
[V:2] D2E2DC | 
[V:3] A4A2 | 
[V:4] D,E,D,C,B,,A,, | 
[V:1] G2F2G2 | 
[V:2] D2CDE2 | 
[V:3] G2A2B2 | 
[V:4] B,,G,,C,B,,A,,G,, | 
[V:1] A4!fermata!A2 | 
[V:2] F4!fermata!F2 | 
[V:3] c4!fermata!c2 | 
[V:4] F,,4!fermata!F,,2 | 
[V:1] A4G2 | 
[V:2] F4G2 | 
[V:3] c4c2 | 
[V:4] F,,A,,C,F,- F,E, | 
[V:1] A4G2 | 
[V:2] G2F2E2 | 
[V:3] c4c2 | 
[V:4] F,G,A,B,CC, | 
[V:1] A2=B4 | 
[V:2] F4G2 | 
[V:3] c2d4 | 
[V:4] F,E,D,G,F,G, | 
[V:1] !fermata!c6 | 
[V:2] !fermata!G6 | 
[V:3] !fermata!e6 | 
[V:4] !fermata!C,6 | 
[V:1] d4e2 | 
[V:2] G2A4 | 
[V:3] B2f2e2- | 
[V:4] G,,G,F,E,D,^C, | 
[V:1] f3ed2 | 
[V:2] A3GF2- | 
[V:3] e2d^c dc | 
[V:4] D,F,G,A,B,A, | 
[V:1] d2e2^c2 | 
[V:2] F2E2EG | 
[V:3] B2B2A2 | 
[V:4] G,F,G,E,A,A,, | 
[V:1] !fermata!d6 |]  
[V:2] !fermata!^F6 |]  
[V:3] !fermata!A6 |]  
[V:4] !fermata!D,6 |]  



